X:1
T: Csaló Pista
M: 1/4
L: 1/4
Q: "Parlando" 1/4=80
O: Tornyospálca (Szabolcs), Potyók János (53), 1953.05
K: Eb
c/B/c/B/ c/c/d/c/ | cBcz | 
Hd/c/B/A/ G/F/B/c/ | B<G Gz|
Hc/B/c/B/ A/G/F/E/ | D<E F>z | 
Hc/c/B/A/ G/F/E/B,/ | B,<C Cz | 

